src/assets/icons/filters/categories/phone_stroke.svg

<svg width="36" height="48" viewBox="0 0 36 48" fill="none" xmlns="http://www.w3.org/2000/svg">
<path fill-rule="evenodd" clip-rule="evenodd" d="M30.608 42C30.608 43.6544 29.2368 45 27.5488 45H6.1216C4.4336 45 3.0608 43.656 3.0608 42V6C3.0608 4.3456 4.4336 3 6.1216 3H27.5488C29.2368 3 30.6096 4.3456 30.6096 6V42H30.608ZM35.2 12C35.1983 12.199 35.1574 12.3958 35.0796 12.579C35.0018 12.7622 34.8886 12.9283 34.7465 13.0677C34.6044 13.2071 34.4362 13.3171 34.2516 13.3914C34.0669 13.4657 33.8694 13.5029 33.6704 13.5008V16.5008C34.5168 16.5008 35.2 17.1712 35.2 18V19.5008C35.1981 19.6997 35.157 19.8963 35.0791 20.0793C35.0012 20.2623 34.888 20.4282 34.7459 20.5675C34.6039 20.7067 34.4358 20.8166 34.2512 20.8908C34.0667 20.965 33.8693 21.0021 33.6704 21V42C33.6704 45.3088 30.9248 48 27.5488 48H6.1216C2.7456 48 0 45.3088 0 42V6C0 2.6912 2.7456 0 6.1216 0H27.5488C30.9248 0 33.6704 2.6912 33.6704 6V9C34.5168 9 35.2 9.672 35.2 10.5008V12ZM17.6 35.2C15.8352 35.2 14.4 36.6352 14.4 38.4C14.4 40.1648 15.8352 41.6 17.6 41.6C19.3648 41.6 20.8 40.1648 20.8 38.4C20.8 36.6352 19.3648 35.2 17.6 35.2ZM20.5328 6.4H13.0672C12.0352 6.4 11.2 7.1152 11.2 8C11.2 8.8848 12.0352 9.6 13.0672 9.6H20.5328C21.568 9.6 22.4 8.8848 22.4 8C22.4 7.1152 21.5664 6.4 20.5328 6.4Z" fill="black"/>
</svg>

<svg width="36" height="48" viewBox="0 0 36 48" fill="none" xmlns="http://www.w3.org/2000/svg"><path fill-rule="evenodd" clip-rule="evenodd" d="M30.608 42c0 1.654-1.371 3-3.06 3H6.123c-1.688 0-3.061-1.344-3.061-3V6c0-1.654 1.373-3 3.06-3H27.55c1.688 0 3.06 1.346 3.06 3v36h-.001zM35.2 12a1.515 1.515 0 01-1.53 1.5v3c.847 0 1.53.671 1.53 1.5v1.5a1.514 1.514 0 01-1.53 1.5v21c0 3.309-2.745 6-6.121 6H6.122C2.746 48 0 45.309 0 42V6c0-3.309 2.746-6 6.122-6h21.427c3.376 0 6.121 2.691 6.121 6v3c.847 0 1.53.672 1.53 1.5V12zM17.6 35.2a3.203 3.203 0 00-3.2 3.2c0 1.765 1.435 3.2 3.2 3.2 1.765 0 3.2-1.435 3.2-3.2 0-1.765-1.435-3.2-3.2-3.2zm2.933-28.8h-7.466c-1.032 0-1.867.715-1.867 1.6 0 .885.835 1.6 1.867 1.6h7.466c1.035 0 1.867-.715 1.867-1.6 0-.885-.834-1.6-1.867-1.6z" fill="#000"/></svg>
